img/yourphotos.svg

<svg width="32" height="32" xmlns="http://www.w3.org/2000/svg" xml:space="preserve" style="fill-rule:evenodd;clip-rule:evenodd;stroke-linejoin:round;stroke-miterlimit:2"><path d="M9 14h10l-3.45-4.5-2.3 3-1.55-2L9 14Zm-1 4c-.55 0-1.021-.196-1.412-.587A1.927 1.927 0 0 1 6 16V4c0-.55.196-1.021.588-1.413A1.926 1.926 0 0 1 8 2h12c.55 0 1.021.196 1.413.587.391.392.587.863.587 1.413v12a1.93 1.93 0 0 1-.587 1.413A1.93 1.93 0 0 1 20 18H8Zm0-2h12V4H8v12Zm-4 6c-.55 0-1.021-.196-1.412-.587A1.927 1.927 0 0 1 2 20V6h2v14h14v2H4ZM8 4v12V4Z" style="fill-rule:nonzero" transform="translate(-.797 -.797) scale(1.39859)"/></svg>

<?xml version="1.0" encoding="UTF-8" standalone="no"?>
<svg width="32" height="32" viewBox="0 0 32 32" version="1.1" xmlns="http://www.w3.org/2000/svg" xmlns:xlink="http://www.w3.org/1999/xlink" xml:space="preserve" style="fill-rule:evenodd;clip-rule:evenodd;stroke-linejoin:round;stroke-miterlimit:2;">
    <g transform="matrix(1.39859,0,0,1.39859,-0.797178,-0.797178)">
        <path d="M9,14L19,14L15.55,9.5L13.25,12.5L11.7,10.5L9,14ZM8,18C7.45,18 6.979,17.804 6.588,17.413C6.196,17.021 6,16.55 6,16L6,4C6,3.45 6.196,2.979 6.588,2.587C6.979,2.196 7.45,2 8,2L20,2C20.55,2 21.021,2.196 21.413,2.587C21.804,2.979 22,3.45 22,4L22,16C22,16.55 21.804,17.021 21.413,17.413C21.021,17.804 20.55,18 20,18L8,18ZM8,16L20,16L20,4L8,4L8,16ZM4,22C3.45,22 2.979,21.804 2.588,21.413C2.196,21.021 2,20.55 2,20L2,6L4,6L4,20L18,20L18,22L4,22ZM8,4L8,16L8,4Z" style="fill-rule:nonzero;"/>
    </g>
</svg>
